X:1
L:1/4
Q:1/4=200
M:6/8
V:1
V:2 clef=bass
K:F
[V:1] [DGB]3/4 z/4 [DGB]3/4 z/4 [FA]/[EG]/ | [FA]/D3/4 z3/4 D/E/ | [B,DF]3/4 z/4 [B,DF]3/4 z/4 [B,DG]3/4 z/4 | [FA]/D3/4 z3/4 D/F/ |
[V:2] [G,,,G,,]3/4 z/4 [G,,,G,,]/ [G,,,G,,]3/4 z/4 [G,,,G,,]/ | [D,,D,]3/4 z/4 [D,,D,]/ [D,,D,]3/4 z/4 [D,,D,]/ | [B,,,B,,]3/4 z/4 [B,,,B,,]/ [B,,,B,,]3/4 z/4 [B,,,B,,]/ | [D,,D,]3/4 z/4 [D,,D,]/ [D,,D,]3/4 z/4 [D,,D,]/ |